lib/brands/icons/android-auto.svg

<svg xmlns="http://www.w3.org/2000/svg" fill="none" aria-hidden="true" viewBox="0 0 48 48"><g id="android-auto-Icon"><g id="Group"><path id="Vector" fill="#03A9F4" fill-rule="evenodd" d="M8.29787 36.6383C7.0283 36.6383 6 35.61 6 34.3404C6 33.9229 6.11109 33.5304 6.30641 33.1934L20.8596 7.91679C21.256 7.22937 21.9989 6.76599 22.8511 6.76599C23.7032 6.76599 24.4461 7.22937 24.8425 7.91679L39.3957 33.1934C39.591 33.5304 39.7021 33.9229 39.7021 34.3404C39.7021 35.61 38.6738 36.6383 37.4043 36.6383H8.29787Z" clip-rule="evenodd"/><path id="Vector_2" fill="url(#paint0_linear_94_17062)" fill-rule="evenodd" d="M22.8511 17.4894V36.6383H42L22.8511 17.4894Z" clip-rule="evenodd"/><path id="Vector_3" fill="#039BE5" fill-rule="evenodd" d="M20.8596 7.91679L6.30641 33.1934C6.11109 33.5304 6 33.9229 6 34.3404C6 35.61 7.0283 36.6383 8.29787 36.6383H22.8511V6.76599C21.9989 6.76599 21.256 7.22937 20.8596 7.91679V7.91679Z" clip-rule="evenodd"/><path id="Vector_4" fill="#F1F1F1" fill-rule="evenodd" d="M22.8508 17.4894L35.8721 40.4681L35.1062 41.2341L22.8508 36.6383L10.5955 41.2341L9.82959 40.4681L22.8508 17.4894Z" clip-rule="evenodd"/><path id="Vector_5" fill="#E1E1E1" fill-rule="evenodd" d="M22.8511 17.4894L35.8723 40.4681L35.1064 41.2341L22.8511 36.6383" clip-rule="evenodd"/></g></g><defs><linearGradient id="paint0_linear_94_17062" x1="18.7396" x2="38.9741" y1="24.7288" y2="36.2203" gradientUnits="userSpaceOnUse"><stop stop-color="#1A237E" stop-opacity="0.2"/><stop offset="1" stop-color="#1A237E" stop-opacity="0.02"/></linearGradient></defs></svg>

<svg xmlns="http://www.w3.org/2000/svg" fill="none" aria-hidden="true" viewBox="0 0 48 48"><path fill="#03A9F4" fill-rule="evenodd" d="M8.298 36.638a2.297 2.297 0 0 1-1.992-3.445L20.86 7.917a2.296 2.296 0 0 1 1.991-1.151c.852 0 1.595.463 1.992 1.15l14.553 25.277a2.297 2.297 0 0 1-1.991 3.445H8.297Z" clip-rule="evenodd"/><path fill="url(#a)" fill-rule="evenodd" d="M22.851 17.49v19.148H42L22.851 17.49Z" clip-rule="evenodd"/><path fill="#039BE5" fill-rule="evenodd" d="M20.86 7.917 6.306 33.193a2.297 2.297 0 0 0 1.991 3.445h14.554V6.766c-.852 0-1.595.463-1.991 1.15Z" clip-rule="evenodd"/><path fill="#F1F1F1" fill-rule="evenodd" d="m22.851 17.49 13.021 22.978-.766.766-12.255-4.596-12.255 4.596-.766-.766 13.02-22.979Z" clip-rule="evenodd"/><path fill="#E1E1E1" fill-rule="evenodd" d="m22.851 17.49 13.021 22.978-.766.766-12.255-4.596" clip-rule="evenodd"/><defs><linearGradient id="a" x1="18.74" x2="38.974" y1="24.729" y2="36.22" gradientUnits="userSpaceOnUse"><stop stop-color="#1A237E" stop-opacity=".2"/><stop offset="1" stop-color="#1A237E" stop-opacity=".02"/></linearGradient></defs></svg>
